src/static/logos/500px.svg

<?xml version="1.0" encoding="UTF-8" standalone="no"?>
<svg width="256px" height="330px" viewBox="0 0 256 330" version="1.1" xmlns="http://www.w3.org/2000/svg" xmlns:xlink="http://www.w3.org/1999/xlink" preserveAspectRatio="xMidYMid">
    <g>
        <path d="M251.546573,273.498817 L251.547232,273.498817 C249.225463,271.18363 247.253802,269.816761 245.519057,269.319239 C243.759962,268.81382 242.189082,269.190252 240.97555,270.407075 L239.833751,271.5469 C227.875458,283.505851 213.950769,292.894931 198.445987,299.452874 C182.400908,306.239177 165.351571,309.68037 147.771807,309.68037 C130.191386,309.68037 113.142707,306.239177 97.0982855,299.452874 C81.5948202,292.895589 67.6707894,283.507167 55.7124963,271.547558 C43.2533909,259.089111 33.8649693,245.165738 27.8084963,230.163743 C21.9027277,215.536206 19.9738434,204.534129 19.3400953,200.919198 C19.2808665,200.580278 19.2341416,200.312432 19.1972881,200.118951 C18.3845375,195.861717 14.4662238,195.564257 8.83488193,196.425707 C6.49337036,196.783712 -0.633169482,197.87418 0.0453292328,203.001419 L0.061781675,203.11856 C1.94854774,214.987352 5.28115443,226.625152 9.96878425,237.707517 C17.5026866,255.519589 28.2849591,271.512679 42.0168254,285.243229 C55.7486917,298.975753 71.7424398,309.758026 89.5538537,317.290612 C107.993751,325.093018 127.58137,329.048843 147.771807,329.048843 C167.951715,329.048843 187.539992,325.091044 205.990419,317.284689 C223.79591,309.754735 239.789658,298.970488 253.528106,285.231383 C253.559694,285.199794 254.309926,284.455486 254.720579,284.007979 C256.232229,282.362077 257.547766,279.482242 251.546573,273.498817 L251.546573,273.498817 Z M147.585566,35.2549512 C128.292774,35.2549512 107.769998,39.1495733 92.6916634,45.6719794 C91.0799822,46.3030951 90.1165272,47.5975733 89.9046197,49.4165553 C89.7065323,51.1322159 90.1698331,53.396072 91.3228202,56.3417172 C92.257977,58.7312699 94.7416377,65.0786221 99.5503575,63.2445039 C114.98209,57.3578201 132.041298,54.1160308 147.585566,54.1160308 C165.19955,54.1160308 182.281792,57.5638046 198.359118,64.3632699 C211.133453,69.7675681 223.18717,77.5739229 236.291869,88.9293985 C237.247427,89.7579434 238.261555,90.1778098 239.305956,90.1778098 C241.860692,90.1778098 244.311447,87.6678252 246.407489,85.3157841 C249.906594,81.3902314 252.309967,78.127383 248.862193,74.8619023 C236.347807,63.0069306 222.634368,54.15091 205.705463,46.9921234 C187.294522,39.2041954 167.739807,35.2549512 147.585566,35.2549512 L147.585566,35.2549512 Z M121.284034,198.380915 C121.307067,200.561193 123.302419,202.472967 124.494234,203.615424 L124.868692,203.97672 C126.912743,205.987208 128.860054,207.006602 130.655345,207.006602 C132.141987,207.006602 133.058059,206.303753 133.382501,206.001686 C134.282779,205.165244 144.468157,194.844956 145.440167,193.860442 L156.798933,205.182355 C157.850573,206.366931 158.993689,206.960535 160.325679,206.997388 C162.139396,206.997388 164.116322,205.918766 166.200517,203.791794 C171.102028,198.786961 168.649298,196.088103 167.463406,194.783753 L155.954594,183.270992 L167.95698,171.183712 C170.588712,168.335465 168.264969,165.308874 165.946491,162.990396 C162.580322,159.623568 159.332609,158.754879 157.250388,160.673234 L145.316445,172.628237 L133.247591,160.556093 C132.60792,159.943404 131.801093,159.61962 130.914635,159.61962 C129.306244,159.61962 127.403684,160.706797 125.258286,162.852195 C121.546615,166.563208 120.750974,169.128473 122.682491,171.175157 L134.754635,183.210447 L122.753566,195.232576 C121.766419,196.218406 121.272188,197.277285 121.284034,198.380915 L121.284034,198.380915 Z M44.7525375,216.204833 C44.8249282,216.404237 46.5294012,221.11819 47.5172058,223.454437 C52.9392727,236.274838 60.7041673,247.790889 70.5960336,257.683414 C80.481319,267.567383 91.9986866,275.33162 104.829617,280.758293 C118.112003,286.377131 132.218327,289.226036 146.757021,289.226036 C161.293082,289.226036 175.399406,286.376473 188.684424,280.756977 C201.51009,275.332278 213.028116,267.567383 222.91735,257.678149 C232.805926,247.790889 240.570162,236.272864 245.996178,223.445882 C251.615016,210.161522 254.46392,196.05454 254.46392,181.51782 C254.46392,166.980442 251.615016,152.87346 245.996178,139.590416 C240.571478,126.764093 232.806584,115.246067 222.91735,105.356833 C213.031406,95.4702314 201.513381,87.7053368 188.684424,82.2780051 C175.400723,76.6591671 161.294399,73.8102622 146.757021,73.8102622 C132.047221,73.8102622 117.349268,76.7381388 104.251149,82.2780051 C93.7814732,86.7070026 76.0602187,98.1092031 65.687283,108.807239 L65.6260799,108.869758 L65.6260799,20.2279486 L214.527262,20.2266324 C219.946039,20.1674036 219.946039,12.6005964 219.946039,10.1136452 C219.946039,7.62801028 219.946039,0.0631773779 214.51081,0.00131619537 L53.5091853,0 C49.1262547,0 46.4129179,3.64586118 46.4129179,7.02387661 L46.4129179,131.791959 C46.4129179,135.816884 51.4269642,138.723702 56.0856377,139.720062 C65.1838382,141.663424 67.2858022,138.75529 69.514121,135.678026 L69.8096069,135.270005 C73.2113138,130.216473 83.8415657,119.517779 83.9481776,119.411167 C100.537504,102.821841 122.719345,93.6861285 146.406255,93.6861285 C169.979972,93.6861285 192.098635,102.821841 208.687962,119.411167 C225.333226,136.057748 234.500527,158.113892 234.500527,181.51782 C234.500527,205.006643 225.380609,227.062129 208.819581,243.623157 C192.47046,259.972278 169.630522,269.348853 146.157494,269.348853 C130.258512,269.348853 114.911674,265.112679 101.765514,257.095733 L101.821453,181.231548 C101.821453,171.115928 106.211622,160.119774 113.56389,151.815897 C121.970429,142.322838 133.555581,137.09491 146.18645,137.09491 C158.418512,137.09491 169.842429,141.738447 178.354923,150.170653 C186.806214,158.542972 191.46028,169.697069 191.46028,181.579023 C191.46028,206.93092 171.525185,226.789676 146.076548,226.789676 C141.170429,226.789676 132.25189,224.621902 131.885329,224.532401 C126.746902,223.002324 124.560702,230.136103 123.841401,232.487486 C121.075417,241.530406 125.231962,243.323064 126.093411,243.59091 C134.282779,246.132483 139.652856,246.614211 146.697134,246.614211 C182.623345,246.614211 211.850779,217.37164 211.850779,181.428977 C211.850779,145.77456 182.641113,116.766931 146.737278,116.766931 C129.154882,116.766931 112.637288,123.488082 100.228198,135.691846 C88.410738,147.314509 81.6323318,162.811393 81.6323318,178.205614 L81.6257508,178.587969 C81.5684963,180.50764 81.5309848,225.986797 81.5197971,240.911794 L81.4526711,240.837429 C74.6999308,233.360123 68.025504,221.914488 63.6004552,210.220751 C61.8657097,205.637758 57.9473961,206.449193 52.6003524,208.095753 C50.2654218,208.815054 43.159283,211.003887 44.7308202,216.140997 L44.7525375,216.204833 L44.7525375,216.204833 Z" fill="#0A0A08"></path>
    </g>
</svg>

<svg width="256" height="330" xmlns="http://www.w3.org/2000/svg" preserveAspectRatio="xMidYMid"><path d="M251.547 273.499c-2.322-2.315-4.293-3.682-6.028-4.18-1.759-.505-3.33-.129-4.543 1.088l-1.142 1.14c-11.959 11.959-25.883 21.348-41.388 27.906-16.045 6.786-33.094 10.227-50.674 10.227s-34.63-3.44-50.674-10.227c-15.503-6.557-29.427-15.946-41.386-27.905-12.459-12.459-21.847-26.382-27.904-41.384-5.905-14.628-7.834-25.63-8.468-29.245-.06-.339-.106-.607-.143-.8-.812-4.257-4.73-4.555-10.362-3.693-2.342.358-9.468 1.448-8.79 6.575l.017.118a148.876 148.876 0 009.907 34.589c7.534 17.812 18.316 33.805 32.048 47.535 13.732 13.733 29.725 24.515 47.537 32.048 18.44 7.802 38.027 11.758 58.218 11.758 20.18 0 39.768-3.958 58.218-11.764 17.806-7.53 33.8-18.315 47.538-32.054.032-.031.782-.776 1.193-1.223 1.511-1.646 2.827-4.526-3.174-10.51zM147.586 35.255c-19.293 0-39.816 3.895-54.894 10.417-1.612.631-2.575 1.926-2.787 3.745-.198 1.715.265 3.98 1.418 6.925.935 2.39 3.419 8.737 8.227 6.903 15.432-5.887 32.491-9.129 48.036-9.129 17.614 0 34.696 3.448 50.773 10.247 12.774 5.405 24.828 13.21 37.933 24.566.955.829 1.97 1.249 3.014 1.249 2.555 0 5.005-2.51 7.101-4.862 3.5-3.926 5.903-7.189 2.455-10.454-12.514-11.855-26.228-20.711-43.157-27.87-18.41-7.788-37.965-11.737-58.12-11.737zm-26.302 163.126c.023 2.18 2.018 4.092 3.21 5.234l.375.362c2.044 2.01 3.991 3.03 5.786 3.03 1.487 0 2.403-.703 2.728-1.005.9-.837 11.085-11.157 12.057-12.142l11.359 11.322c1.052 1.185 2.195 1.779 3.527 1.815 1.813 0 3.79-1.078 5.875-3.205 4.901-5.005 2.448-7.704 1.262-9.008l-11.508-11.513 12.002-12.087c2.632-2.849.308-5.875-2.01-8.194-3.367-3.366-6.614-4.235-8.697-2.317l-11.934 11.955-12.068-12.072a3.313 3.313 0 00-2.333-.936c-1.609 0-3.511 1.087-5.657 3.232-3.711 3.711-4.507 6.276-2.576 8.323l12.073 12.035-12.001 12.023c-.988.985-1.482 2.044-1.47 3.148zm-76.531 17.824c.072.2 1.776 4.913 2.764 7.25 5.422 12.82 13.187 24.336 23.079 34.228 9.885 9.884 21.403 17.649 34.234 23.075 13.282 5.62 27.388 8.468 41.927 8.468 14.536 0 28.642-2.85 41.927-8.469 12.826-5.425 24.344-13.19 34.233-23.079 9.889-9.887 17.653-21.405 23.08-34.232 5.618-13.284 8.467-27.391 8.467-41.928 0-14.538-2.849-28.645-8.468-41.928-5.425-12.826-13.19-24.344-23.079-34.233-9.886-9.887-21.404-17.652-34.233-23.079-13.283-5.619-27.39-8.468-41.927-8.468-14.71 0-29.408 2.928-42.506 8.468-10.47 4.429-28.19 15.831-38.564 26.53l-.06.062V20.228l148.9-.001c5.419-.06 5.419-7.626 5.419-10.113 0-2.486 0-10.05-5.435-10.113L53.509 0c-4.383 0-7.096 3.646-7.096 7.024v124.768c0 4.025 5.014 6.932 9.673 7.928 9.098 1.943 11.2-.965 13.428-4.042l.296-.408c3.401-5.054 14.032-15.752 14.138-15.859 16.59-16.59 38.771-25.725 62.458-25.725 23.574 0 45.693 9.136 62.282 25.725 16.645 16.647 25.813 38.703 25.813 62.107 0 23.489-9.12 45.544-25.681 62.105-16.35 16.35-39.19 25.726-62.663 25.726-15.898 0-31.245-4.236-44.391-12.253l.055-75.864c0-10.116 4.39-21.112 11.743-29.416 8.406-9.493 19.992-14.721 32.622-14.721 12.233 0 23.656 4.643 32.169 13.076 8.451 8.372 13.105 19.526 13.105 31.408 0 25.352-19.935 45.21-45.383 45.21-4.907 0-13.825-2.167-14.192-2.257-5.138-1.53-7.324 5.604-8.044 7.955-2.766 9.043 1.391 10.836 2.252 11.104 8.19 2.541 13.56 3.023 20.604 3.023 35.926 0 65.154-29.242 65.154-65.185 0-35.654-29.21-64.662-65.114-64.662-17.582 0-34.1 6.721-46.509 18.925-11.817 11.623-18.596 27.12-18.596 42.514l-.006.382c-.058 1.92-.095 47.399-.106 62.324l-.067-.075C74.7 233.36 68.026 221.914 63.6 210.221c-1.734-4.583-5.653-3.772-11-2.125-2.335.72-9.44 2.908-7.87 8.045l.023.064z" fill="#0A0A08"/></svg>
